X: 38437
T: Starry Nights Of Shetland, The
R: waltz
M: 3/4
K: Dmajor
|:A|f2 d|A B A|G2 G|c2 B|A2 c|e2 A|f3|f2 A|
f2 d|A B A|G2 G|c2 B|A c e/f/|g B c|d3|d2:|
|:e/f/|g B g|g B g|f A f|f A f|f d f|a g f|e3|e d e|
f2 d|A B A|G2 G|c2 B|A c e/f/|g B c|d3|d2:|
|:A|A2 A|f g f|B2 B|e2 d|c2 B|A2 G|F2 A|A2 A|
A2 A|f g f|B2 B|e2 d|c A c|B A G|F3|F2:|
|:=c|B2 B|B2 B|A2 A|A2 A|A B A|f e d|c3|c B A|
A2 A|f g f|B2 B|e2 d|c A c|B A G|F3|F2:|

